;FLAVOR:Marlin
;TIME:1810
;Filament used: 1.96815m
;Layer height: 0.2
;Generated with Cura_SteamEngine 3.0.3
M104 S182
M104 T1 S200
M109 S182
M109 T1 S200
M82 ; absolute extrusion mode
G21 ;metric values
G90 ;absolute positioning
M82 ;set extruder to absolute mode
M107 ;start with the fan off
G28 X0 Y0 ;move X/Y to min endstops
G28 Z0 ;move Z to min endstops
G1 Z15.0 F9000 ;move the platform down 15mm
G92 E0 ;zero the extruded length
G1 F200 E3 ;extrude 3mm of feed stock
G92 E0 ;zero the extruded length again
G1 F9000
;Put printing message on LCD screen
M117 Printing...
;LAYER_COUNT:28
;LAYER:0
M107
G0 F3600 X13.473 Y70.663 Z0.3
;TYPE:SKIRT
G1 F2760 X13.934 Y70.456 E0.02017
G1 X14.35 Y70.338 E0.03743
G1 X17.271 Y69.718 E0.15661
G1 X17.613 Y69.664 E0.17043
G1 X19.611 Y69.462 E0.25058
G1 X20.05 Y69.448 E0.26811
G1 X24.593 Y69.614 E0.44955
G1 X30.091 Y69.543 E0.66901
G1 X35.53 Y69.164 E0.88661
G1 X41.282 Y68.434 E1.11803
G1 X41.354 Y68.426 E1.12092
G1 X45.157 Y68.03 E1.27353
G1 X45.212 Y68.025 E1.27573
G1 X47.497 Y67.827 E1.36727
G1 X47.961 Y67.821 E1.3858
G1 X55.437 Y68.261 E1.68469
G1 X63.105 Y68.343 E1.99076
G1 X63.303 Y68.351 E1.99867
G1 X65.654 Y68.522 E2.09275
G1 X65.784 Y68.535 E2.09796
G1 X71.236 Y69.156 E2.31697
G1 X76.725 Y69.475 E2.53642
G1 X82.194 Y69.483 E2.7547
G1 X87.659 Y69.181 E2.97315
G1 X93.122 Y68.569 E3.19256
G1 X95.782 Y68.156 E3.29999
G1 X100.537 Y67.236 E3.4933
G1 X101.04 Y67.18 E3.5135
G1 X101.371 Y67.186 E3.52671
G1 X105.003 Y67.443 E3.67203
G1 X105.672 Y67.563 E3.69916
G1 X106.764 Y67.881 E3.74455
G1 X107.236 Y68.06 E3.7647
G1 X107.786 Y68.391 E3.79032
G1 X108.441 Y68.881 E3.82297
G1 X108.821 Y69.215 E3.84316
G1 X109.143 Y69.604 E3.86332
G1 X109.388 Y70.015 E3.88242
G1 X111.875 Y75.004 E4.10491
G1 X114.576 Y79.745 E4.32268
G1 X117.562 Y84.36 E4.54207
G1 X119.692 Y87.334 E4.68807
G1 X119.953 Y87.767 E4.70825
G1 X120.142 Y88.235 E4.7284
G1 X120.255 Y88.728 E4.74858
G1 X120.29 Y89.232 E4.76875
G1 X120.238 Y89.771 E4.79036
G1 X119.936 Y91.428 E4.85758
G1 X119.716 Y92.146 E4.88756
G1 X117.172 Y97.913 E5.13913
G1 X116.932 Y98.358 E5.15931
G1 X116.527 Y98.863 E5.18515
G1 X115.585 Y99.822 E5.2388
G1 X115.086 Y100.237 E5.2647
G1 X113.333 Y101.414 E5.34898
G1 X113.049 Y101.584 E5.36219
G1 X111.779 Y102.258 E5.41957
G1 X111.654 Y102.321 E5.42516
G1 X106.402 Y104.82 E5.6573
G1 X105.93 Y105 E5.67746
G1 X105.435 Y105.104 E5.69765
G1 X104.744 Y105.117 E5.72523
G1 X97.853 Y104.505 E6.00135
G1 X92.373 Y104.32 E6.22019
G1 X86.904 Y104.444 E6.43853
G1 X81.43 Y104.879 E6.65769
G1 X76.924 Y105.467 E6.83906
G1 X76.746 Y105.485 E6.8462
G1 X70.527 Y105.946 E7.0951
G1 X65.099 Y106.668 E7.31365
G1 X59.718 Y107.697 E7.53231
G1 X53.788 Y109.166 E7.77614
G1 X53.178 Y109.256 E7.80075
G1 X52.818 Y109.274 E7.81514
G1 X52.312 Y109.259 E7.83534
G1 X52.049 Y109.219 E7.84596
G1 X43.94 Y107.646 E8.17564
G1 X43.719 Y107.596 E8.18469
G1 X35.181 Y105.303 E8.53753
G1 X32.507 Y104.677 E8.64714
G1 X27.73 Y103.756 E8.84131
G1 X27.243 Y103.622 E8.86147
G1 X26.662 Y103.341 E8.88723
G1 X24.238 Y101.853 E9.00075
G1 X23.829 Y101.555 E9.02095
G1 X23.473 Y101.197 E9.0411
G1 X23.177 Y100.787 E9.06128
G1 X22.972 Y100.39 E9.07912
G1 X20.24 Y94.033 E9.35528
G1 X17.777 Y89.157 E9.57331
G1 X15.875 Y85.792 E9.72758
G1 X15.601 Y85.152 E9.75537
G1 X14.778 Y82.458 E9.8678
G1 X13.019 Y77.224 E10.08818
G1 X12.51 Y75.919 E10.14409
G1 X12.49 Y75.867 E10.14631
G1 X12.013 Y74.58 E10.20109
G1 X11.876 Y74.094 E10.22124
G1 X11.816 Y73.592 E10.24142
G1 X11.837 Y73.086 E10.26163
G1 X11.937 Y72.591 E10.28179
G1 X12.113 Y72.117 E10.30197
G1 X12.362 Y71.677 E10.32215
G1 X12.677 Y71.282 E10.34231
G1 X13.051 Y70.941 E10.36251
G1 X13.473 Y70.663 E10.38268
G1 F1500 E3.88268
G0 F3600 X15.72 Y72.616
G0 X15.992 Y73.862
G0 X16.066 Y73.893
G0 X15.974 Y73.855
;TYPE:WALL-INNER
G1 F1500 E10.38268
G1 F2760 X16.256 Y73.794 E10.3942
G1 X17.095 Y73.611 E10.42847
G1 X17.832 Y73.617 E10.45789
G1 X17.986 Y73.52 E10.46515
G1 X18.2 Y73.62 E10.47458
G1 X18.576 Y73.621 E10.48959
G1 X19.114 Y73.557 E10.51121
G1 X19.818 Y73.253 E10.54182
G1 X19.906 Y73.243 E10.54535
G1 X20.422 Y73.393 E10.5668
G1 X20.521 Y73.394 E10.57075
G1 X20.767 Y73.825 E10.59056
G1 X22.099 Y73.834 E10.64372
G1 X22.448 Y73.743 E10.65812
G1 X23.339 Y73.825 E10.69383
G1 X23.571 Y73.872 E10.70328
G1 X24.011 Y73.833 E10.72091
G1 X24.138 Y73.794 E10.72621
G1 X24.937 Y74.404 E10.76633
G1 X25.709 Y74.579 E10.79793
G1 X26.804 Y75.138 E10.84699
G1 X28.625 Y75.158 E10.91968
G1 X29.254 Y74.563 E10.95424
G1 X29.315 Y74.148 E10.97098
G1 X29.481 Y74.285 E10.971
G1 X32.029 Y76.383 E11.10273
G1 X37.647 Y78.877 E11.34806
G1 X41.844 Y79.945 E11.52091
G1 X44.682 Y79.964 E11.63419
G1 X44.79 Y80.524 E11.65695
G1 X45.867 Y81.902 E11.72675
G1 X46.827 Y82.424 E11.77037
G1 X47.782 Y81.884 E11.81415
G1 X47.985 Y81.784 E11.82319
G1 X51.452 Y81.694 E11.96161
G1 X51.654 Y81.689 E11.96967
G1 X51.646 Y81.487 E11.97488
G1 X51.599 Y80.381 E12.01906
G1 X51.206 Y79.836 E12.04588
G1 X49.822 Y78.405 E12.12533
G1 X49.52 Y78.239 E12.13909
G1 X49.504 Y78.197 E12.14088
G1 X49.314 Y77.458 E12.17133
G1 X49.105 Y76.921 E12.19433
G1 X48.945 Y76.631 E12.20755
G1 X48.146 Y75.648 E12.25811
G1 X47.529 Y74.994 E12.294
G1 X47.25 Y74.786 E12.30789
G1 X46.924 Y74.404 E12.32793
G1 X46.188 Y74.241 E12.35802
G1 X44.764 Y74.586 E12.4165
G1 X44.523 Y74.86 E12.43106
G1 X44.457 Y74.868 E12.43371
G1 X44.206 Y74.803 E12.44406
G1 X43.631 Y74.381 E12.47253
G1 X43.164 Y74.285 E12.49156
G1 X43.005 Y74.101 E12.50126
G1 X42.888 Y73.429 E12.52849
G1 X42.636 Y73.179 E12.54266
G1 X42.397 Y72.362 E12.57663
G1 X42.393 Y72.346 E12.57729
G1 X42.378 Y72.296 E12.57937
G1 X42.469 Y72.278
G1 X42.552 Y72.244 E12.58295
G1 X42.746 Y72.244 E12.58935
G1 X42.762 Y72.241 E12.59
G1 X43.46 Y72.097 E12.61845
G1 X44.02 Y72.072 E12.64082
G1 X44.43 Y71.993 E12.65748
G1 X44.796 Y72.009 E12.67211
G1 X45.487 Y72.077 E12.69982
G1 X46.751 Y71.771 E12.75172
G1 X47.006 Y71.65 E12.76299
G1 X47.128 Y71.658 E12.76787
G1 X47.466 Y71.622 E12.78144
G1 X47.719 Y71.609 E12.79155
G1 X48.08 Y71.744 E12.80693
G1 X48.57 Y71.911 E12.82759
G1 X49.015 Y72.191 E12.84858
G1 X49.314 Y72.622 E12.86951
G1 X49.608 Y73.262 E12.89762
G1 X50.054 Y74.055 E12.93394
G1 X50.457 Y74.712 E12.9647
G1 X51.071 Y75.053 E12.99273
G1 X51.364 Y74.895 E13.00602
G1 X51.408 Y74.871 E13.00802
G1 X51.42 Y74.995
G1 X51.758 Y75.746 E13.04089
G1 X51.977 Y76.277 E13.06381
G1 X52.254 Y76.78 E13.08673
G1 X53.12 Y78.096 E13.14961
G1 X53.755 Y78.764 E13.18639
G1 X54.209 Y79.275 E13.21367
G1 X54.623 Y79.684 E13.2369
G1 X55.099 Y80.235 E13.26596
G1 X55.494 Y80.381 E13.28277
G1 X55.777 Y80.697 E13.2997
G1 X56.46 Y81.126 E13.33189
G1 X57.296 Y81.322 E13.36616
G1 X57.847 Y81.549 E13.38995
G1 X58.201 Y81.838 E13.40819
G1 X58.513 Y81.98 E13.42187
G1 X59.667 Y82.914 E13.48112
G1 X60.345 Y82.602 E13.51091
G1 X60.37 Y81.678 E13.5478
G1 X60.373 Y81.556 E13.55267
G1 X60.251 Y81.327 E13.56303
G1 X60.139 Y81.119 E13.57246
G1 X60.235 Y81.038 E13.57747
G1 X60.484 Y81.202 E13.58032
G1 X60.612 Y81.359 E13.58496
G1 X60.689 Y81.453 E13.58929
G1 X61.028 Y81.866 E13.61062
G1 X61.637 Y82.902 E13.65858
G1 X62.519 Y84.246 E13.72275
G1 X62.67 Y84.475 E13.73369
G1 X62.842 Y84.261 E13.74022
G1 X63.475 Y83.471 E13.78063
G1 X63.309 Y82.76 E13.80977
G1 X63.284 Y82.651 E13.81423
G1 X63.214 Y82.442 E13.82303
G1 X63.135 Y82.208 E13.83288
G1 X63.041 Y81.891 E13.84608
G1 X63.002 Y81.763 E13.85142
G1 X63.15 Y81.858
G1 X63.306 Y82.094 E13.85324
G1 X63.478 Y82.352 E13.85609
G1 X63.541 Y82.423 E13.85667
G1 X63.615 Y82.506 E13.8608
G1 X64.041 Y82.987 E13.88644
G1 X64.584 Y84.082 E13.93523
G1 X64.695 Y84.306 E13.9452
G1 X64.889 Y84.149 E13.95127
G1 X66.073 Y83.186 E14.01219
G1 X66.565 Y82.592 E14.04297
G1 X66.846 Y82.095 E14.06576
G1 X67.167 Y81.651 E14.08763
G1 X67.898 Y81.088 E14.12445
G1 X69.155 Y79.218 E14.21438
G1 X69.395 Y78.46 E14.24612
G1 X69.468 Y77.657 E14.2783
G1 X69.188 Y76.993 E14.30706
G1 X68.838 Y76.279 E14.3388
G1 X67.925 Y75.511 E14.38641
G1 X66.762 Y74.857 E14.43967
G1 X65.724 Y74.359 E14.48562
G1 X65.065 Y74.136 E14.51338
G1 X64.551 Y74.075 E14.53404
G1 X63.842 Y74.018 E14.56243
G1 X63.016 Y73.997 E14.59541
G1 X61.442 Y74.051 E14.65827
G1 X60.822 Y74.631 E14.69215
G1 X60.584 Y74.735 E14.70252
G1 X60.193 Y74.726 E14.71813
G1 X59.79 Y74.256 E14.74284
G1 X59.367 Y73.926 E14.76425
G1 X59.135 Y72.98 E14.80313
G1 X58.826 Y72.553 E14.82417
G1 X58.706 Y72.387 E14.83234
G1 X58.686 Y72.36 E14.83368
G1 X58.686 Y72.293 E14.83636
G1 X58.686 Y72.276 E14.83704
G1 X58.836 Y72.293
G1 X59.039 Y72.271 E14.84307
G1 X59.338 Y72.237 E14.85508
G1 X59.628 Y72.309 E14.86701
G1 X60.328 Y72.927 E14.90428
G1 X60.505 Y73.083 E14.91369
G1 X60.628 Y72.883 E14.91946
G1 X60.629 Y72.882 E14.91952
G1 X61.109 Y72.105 E14.95597
G1 X61.756 Y72.12 E14.9818
G1 X63.022 Y72.133 E15.03233
G1 X63.592 Y72.242 E15.05549
G1 X64.126 Y72.788 E15.08597
G1 X64.963 Y72.606 E15.12016
G1 X65.428 Y72.316 E15.14203
G1 X66.392 Y72.454 E15.1809
G1 X68.111 Y73.026 E15.25321
G1 X69.383 Y73.779 E15.3122
G1 X70.502 Y74.392 E15.36313
G1 X71.38 Y74.921 E15.40404
G1 X72.338 Y75.655 E15.45221
G1 X72.855 Y76.177 E15.48153
G1 X73.494 Y77.008 E15.52337
G1 X73.834 Y77.775 E15.55686
G1 X74.014 Y78.298 E15.57893
G1 X73.66 Y78.95 E15.60854
G1 X73.118 Y79.863 E15.65092
G1 X72.414 Y80.624 E15.6923
G1 X72.089 Y81.351 E15.72408
G1 X72.006 Y82.232 E15.7594
G1 X72.279 Y83.095 E15.79553
G1 X72.798 Y83.754 E15.82901
G1 X73.343 Y84.516 E15.8664
G1 X74.548 Y85.143 E15.92061
G1 X75.043 Y86.174 E15.96626
G1 X76.457 Y86.199 E16.0227
G1 X77.68 Y85.983 E16.07227
G1 X77.826 Y83.898 E16.15569
G1 X78.001 Y83.232 E16.18318
G1 X78.027 Y83.13 E16.18738
G1 X78.236 Y82.658 E16.20798
G1 X78.351 Y83.029 E16.21278
G1 X78.382 Y83.13 E16.21669
G1 X78.49 Y83.478 E16.23123
G1 X78.592 Y83.805 E16.2449
G1 X78.826 Y83.555 E16.25266
G1 X79.762 Y82.554 E16.30736
G1 X80.211 Y81.879 E16.33972
G1 X80.539 Y81.297 E16.36638
G1 X80.985 Y80.808 E16.3928
G1 X81.53 Y80.377 E16.42053
G1 X81.735 Y80.185 E16.43174
G1 X82.003 Y79.935 E16.44637
G1 X82.046 Y79.908 E16.44839
G1 X82.143 Y79.846 E16.45299
G1 X82.059 Y79.928
G1 X82.079 Y80.294 E16.46191
G1 X82.137 Y81.291 E16.50177
G1 X82.154 Y81.601 E16.51416
G1 X82.428 Y81.456 E16.52133
G1 X84.101 Y80.571 E16.59687
G1 X86.634 Y80.39 E16.69822
G1 X87.064 Y80.639 E16.71805
G1 X88.232 Y80.873 E16.7656
G1 X89.014 Y80.908 E16.79684
G1 X91.17 Y81.311 E16.88438
G1 X92.47 Y81.649 E16.93799
G1 X93.561 Y81.794 E16.98192
G1 X95.75 Y81.871 E17.06934
G1 X97.04 Y81.839 E17.12084
G1 X98.371 Y81.443 E17.17627
G1 X99.455 Y81.066 E17.22207
G1 X100.164 Y80.579 E17.2564
G1 X101.044 Y79.642 E17.30771
G1 X101.97 Y78.242 E17.3747
G1 X102.694 Y76.472 E17.45103
G1 X102.753 Y75.02 E17.50903
G1 X102.572 Y74.226 E17.54153
G1 X101.588 Y73.792 E17.58446
G1 X100.762 Y73.681 E17.61772
G1 X100.517 Y73.338 E17.63454
G1 X100.192 Y72.885 E17.6568
G1 X100.087 Y72.686 E17.66578
G1 X100.25 Y72.802
G1 X100.759 Y73.164 E17.67903
G1 X100.999 Y71.57 E17.74337
G1 X101.032 Y71.345 E17.75244
G1 X101.091 Y71.164 E17.76004
G1 X101.151 Y71.224
G1 X101.312 Y71.385 E17.76678
G1 X101.484 Y71.557 E17.77649
G1 X102.699 Y71.924 E17.82715
G1 X102.916 Y71.989 E17.83619
G1 X102.952 Y71.765 E17.84183
G1 X103.015 Y71.389 E17.85705
G1 X103.049 Y71.177 E17.86561
G1 X103.258 Y71.227 E17.87104
G1 X103.492 Y71.284 E17.88065
G1 X103.863 Y72.369 E17.92641
G1 X104.685 Y72.402 E17.95925
G1 X105.14 Y71.353 E18.00489
G1 X105.598 Y71.488 E18.02394
G1 X105.95 Y71.751 E18.04148
G1 X105.971 Y72.656 E18.07761
G1 X106.124 Y73.728 E18.12083
G1 X106.406 Y74.99 E18.17244
G1 X105.477 Y76.933 E18.2584
G1 X104.895 Y78.176 E18.31318
G1 X104.013 Y79.695 E18.38328
G1 X103.113 Y81.131 E18.45092
G1 X102.317 Y82.286 E18.50691
G1 X101.406 Y83.638 E18.57198
G1 X100.653 Y84.705 E18.6241
G1 X99.985 Y85.463 E18.66443
G1 X99.661 Y85.708 E18.68064
G1 X99.327 Y85.693 E18.69398
G1 X98.933 Y85.532 E18.71097
G1 X98.406 Y85.253 E18.73477
G1 X97.088 Y85.003 E18.78831
G1 X95.773 Y85.103 E18.84095
G1 X94.624 Y85.363 E18.88797
G1 X93.524 Y85.707 E18.93397
G1 X92.463 Y86.112 E18.97929
G1 X91.346 Y86.623 E19.02832
G1 X90.401 Y87.359 E19.07613
G1 X89.747 Y88.33 E19.12285
G1 X89.34 Y89.289 E19.16443
G1 X89.288 Y90.645 E19.21859
G1 X89.879 Y90.873 E19.24387
G1 X90.174 Y90.987 E19.2565
G1 X89.944 Y91.204 E19.26378
G1 X89.654 Y91.477 E19.27967
G1 X88.621 Y92.647 E19.34197
G1 X88.975 Y93.367 E19.37399
G1 X89.223 Y93.351 E19.38391
G1 X89.614 Y93.326 E19.39954
G1 X89.404 Y93.657 E19.40821
G1 X89.21 Y93.963 E19.42267
G1 X89.04 Y94.232 E19.43537
G1 X89.356 Y94.267 E19.44266
G1 X89.357 Y94.268 E19.44272
G1 X90.717 Y94.423 E19.49735
G1 X90.942 Y94.257 E19.50851
G1 X90.97 Y94.256 E19.50963
G1 X91.415 Y94.549 E19.5309
G1 X92.536 Y94.183 E19.57796
G1 X93.116 Y93.159 E19.62493
G1 X93.531 Y91.898 E19.67792
G1 X93.547 Y91.811 E19.68145
G1 X93.58 Y91.635 E19.68859
G1 X93.617 Y91.823
G1 X94.656 Y91.756 E19.73015
G1 X95.398 Y90.816 E19.77795
G1 X96.275 Y90.005 E19.82562
G1 X97.291 Y89.42 E19.87241
G1 X97.965 Y89.044 E19.90322
G1 X98.264 Y88.877 E19.91689
G1 X98.379 Y88.828 E19.92188
G1 X98.815 Y88.64 E19.94083
G1 X98.468 Y89.032 E19.94766
G1 X98.261 Y89.305 E19.95893
G1 X97.374 Y90.474 E20.0175
G1 X97.182 Y90.727 E20.03017
G1 X97.493 Y90.789 E20.03746
G1 X98.679 Y91.029 E20.08575
G1 X99.456 Y90.386 E20.12601
G1 X100.574 Y89.871 E20.17514
G1 X100.877 Y89.741 E20.1883
G1 X100.988 Y89.694 E20.19311
G1 X101.121 Y89.645 E20.19876
G1 X101.525 Y89.494 E20.21598
G1 X101.809 Y89.368 E20.22838
G1 X101.95 Y89.306 E20.23453
G1 X102.337 Y89.207 E20.25047
G1 X102.015 Y89.408
G1 X101.868 Y89.5
G1 X101.641 Y89.658
G1 X101.233 Y89.943 E20.26385
G1 X101.151 Y90.031 E20.26835
G1 X100.648 Y90.567 E20.29768
G1 X100.299 Y91.312 E20.33052
G1 X100.66 Y92.302 E20.37258
G1 X101.51 Y92.961 E20.4155
G1 X102.662 Y93.305 E20.46349
G1 X104.289 Y93.48 E20.5288
G1 X105.239 Y93.564 E20.56687
G1 X106.356 Y93.322 E20.61248
G1 X107.339 Y92.326 E20.66833
G1 X107.534 Y92.129 E20.6794
G1 X107.285 Y92.007 E20.68597
G1 X106.393 Y91.571 E20.7256
G1 X105.846 Y91.467 E20.74782
G1 X105.429 Y91.323 E20.76543
G1 X105.323 Y91.287 E20.7699
G1 X105.07 Y91.172 E20.78099
G1 X104.999 Y91.139 E20.78411
G1 X105.111 Y91.078
G1 X105.165 Y91.043
G1 X105.26 Y90.983 E20.78804
G1 X105.556 Y90.793 E20.80208
G1 X106.22 Y90.545 E20.83037
G1 X106.801 Y90.254 E20.8563
G1 X107.706 Y89.907 E20.89499
G1 X108.948 Y89.616 E20.9459
G1 X109.995 Y89.324 E20.98929
G1 X110.84 Y89.198 E21.02338
G1 X111.198 Y89.189 E21.03768
G1 X111.523 Y89.182 E21.05065
G1 X111.641 Y89.196 E21.05539
G1 X111.67 Y89.301 E21.05974
G1 X111.637 Y89.326
G1 X111.382 Y89.526 E21.06935
G1 X111.184 Y89.682 E21.07941
G1 X110.47 Y90.397 E21.11974
G1 X111.053 Y91.243 E21.16074
G1 X111.771 Y91.669 E21.19406
G1 X112.976 Y91.589 E21.24226
G1 X113.656 Y91.526 E21.26952
G1 X114.164 Y91.461 E21.28996
G1 X114.906 Y91.149 E21.32209
G1 X115.168 Y91.017 E21.3338
G1 X115.559 Y90.858 E21.35064
G1 X115.849 Y90.681 E21.3642
G1 X116.132 Y90.51 E21.3774
G1 X116.284 Y90.384 E21.38528
G1 X116.253 Y90.534
G1 X116.223 Y90.673 E21.38829
G1 X116.094 Y90.977 E21.39812
G1 X115.897 Y91.442 E21.41828
G1 X115.312 Y92.548 E21.46821
G1 X114.917 Y93.176 E21.49782
G1 X114.309 Y93.794 E21.53243
G1 X113.71 Y94.335 E21.56464
G1 X113.174 Y94.769 E21.59217
G1 X112.73 Y95.147 E21.61544
G1 X112.362 Y95.313 E21.63155
G1 X111.746 Y95.611 E21.65886
G1 X111.435 Y96.561 E21.69876
G1 X111.9 Y97.077 E21.72648
G1 X112.491 Y96.949 E21.75062
G1 X112.814 Y96.88 E21.7638
G1 X112.946 Y96.835 E21.76937
G1 X113.383 Y96.687 E21.78778
G1 X113.422 Y96.673 E21.78944
G1 X113.391 Y96.709
G1 X113.02 Y97.05 E21.79657
G1 X112.968 Y97.088
G1 X112.702 Y97.284 E21.80747
G1 X112.532 Y97.409 E21.8159
G1 X111.939 Y97.832 E21.84497
G1 X110.64 Y98.594 E21.90508
G1 X109.228 Y99.267 E21.96751
G1 X108.13 Y99.595 E22.01324
G1 X107.078 Y99.842 E22.05637
G1 X106.104 Y99.945 E22.09546
G1 X105.205 Y99.949 E22.13134
G1 X103.918 Y100.075 E22.18296
G1 X103.693 Y100.858 E22.21547
G1 X104.04 Y101.128 E22.23302
G1 X104.219 Y101.267 E22.24207
G1 X103.972 Y101.216
G1 X103.644 Y101.164 E22.24517
G1 X103.343 Y101.116 E22.25734
